T: Dennis Liddy's
M: 4/4
L: 1/8
K: Edor
(3Bcd|:~e3c deed|BAGB AB=cd|BAGB AGFA|EGBe GBeB|
~e3c deed|B~G3 A~F3|BAGB AGFA|1 ~G2FG EGBd:|2 ~G2FG E2z2||
|:Beed (3Bcd Ad|B~e3 gfeg|f~b3 fede|f~a3 bfaf|
efgf edBc|dgfe dBAF|~G2BG FAdA|AFDF ~E3A:|
